X:1
T:Es ist so still geworden
T:Ferdinand Möhring
T:Gottfried Kinkel
T:Es ist so still geworden
T:Op. 66, No. 2
T:CPDL   —   Creative Commons Attribution Non Commercial 3.0
T:CPDL   —   Creative Commons Attribution Non Commercial 3.0
T:CPDL   —   Creative Commons Attribution Non Commercial 3.0
C:Ferdinand Möhring
Z:Gottfried Kinkel
Z:CPDL   —   Creative Commons Attribution Non Commercial 3.0
%%score [ 1 2 3 4 ]
L:1/8
Q:1/4=90
M:4/4
K:Eb
V:1 treble nm="Sopran"
V:2 treble nm="Alt"
V:3 treble-8 nm="Tenor"
V:4 bass nm="Bass"
V:1
!p!"^Andächtig" G z | G2 z3/2 G/ F z E z | D z E z z2 E z | E2 z3/2 E/ E z F z | F6 F2 | %5
w: 1.  Es|ist so still ge-|wor- den, ver-|rauscht des A- bends|Weh'n, nun|
w: 2.  Es|ruht die Welt im|Schwei- gen, ihr|To- sen ist vor-|bei; stumm|
w: 3.  Und|hast du heut ge-|feh- let, o|schau- e nicht zu-|rück; emp-|
w: 4.  Nun|steh'n im Him- mels-|krei- se die|Stern' in Ma- jes-|tät, in|
 A3 A G2 G2 | F4 A2 G2 | B3 B B2 B2 | E2 z4 G2 | e2 d2 c2 =B2 | c2 G2 z2 G2 | e2 d2 c2 =B2 | %12
w: hört man al- ler|Or- ten der|En- gel Fü- ße|gehn. Rings|in die Ta- le|sen- ket sich|Fins- ter- nis mit|
w: ih- rer Freu- de|Rei- gen und|stumm ihr Schmer- zen-|schrei. Hat|Ro- sen sie ge-|schen- ket, hat|Dor- nen sie ge-|
w: fin- de dich be-|see- let von|frei- er Gna- de|Glück. Auch|des Ver- irr- ten|den- ket der|Hirt auf ho- her|
w: glei- chem fes- tem|Glei- se der|gold- ne Wa- gen|geht. Und|gleich den Ster- nen|len- ket Er|dei- nen Weg durch|
 c2"^" z2 G4 | c4 B4 | A4 G4 | F8 | G2 z2 z4 | z2 G2 c2 c2 | c4 =B4 |!<(! c2 d2 e2!<)! E2 | %20
w: Macht, wirf|ab, Herz,|was dich|krän-|ket|und was dir|ban- ge|macht, und was dir|
w: bracht, *||||||||
w: Wacht, *||||||||
w: Nacht, *||||||||
"^dim." G4 F4 | E4 !fermata!z2 |] %22
w: ban- ge|macht!|
w: ||
w: ||
w: ||
V:2
!p! E z | E2 z3/2 E/ D z C z | =B, z C z z2 C z | C2 z3/2 C/ C z E z | D6 D2 | E3 E E2 E2 | %6
w: ||||||
w: ||||||
w: ||||||
w: ||||||
 E4 D2 E2 | F3 G AF CD | E2 G2 G2 G2 | G4 G4 | (G3 F) E2 G2 | G4 G4 | G3 F E2"^" E2 | E4 (E2 D2) | %14
w: ||* Rings in die|Ta- le|sen- * ket sich|Fins- ter-|nis mit Macht, wirf||
w: ||* Hat Ro- sen|sie ge-|schen- * ket, hat|Dor- nen|sie ge- bracht, *||
w: ||* Auch des Ver-|irr- ten|den- * ket der|Hirt auf|ho- her Wacht, *||
w: ||* Und gleich den|Ster- nen|len- * ket Er|dei- nen|Weg durch Nacht, *||
 E4 E4 | (E4 D4) | E2 z2 z4 | z2 E2 A2 A2 |"^ban       -      ge" (A4 G2) F2 | %19
w: |||||
w: |||||
w: |||||
w: |||||
!<(! E2 A2 B2!<)! c2 |"^dim." E4 D4 | E4 !fermata!z2 |] %22
w: |||
w: |||
w: |||
w: |||
V:3
!p! G z | G2 z3/2 G/ G z G z | G z G z z2 G z | G2 z3/2 G/ G z =A z | B6 B2 | _A3 A B2 B2 | %6
w: 1.  Es|ist so still ge-|wor- den, ver-|rauscht des A- bends|Weh'n, nun|hört man al- ler|
w: 2.  Es|ruht die Welt im|Schwei- gen, ihr|To- sen ist vor-|bei; stumm|ih- rer Freu- de|
w: 3.  Und|hast du heut ge-|feh- let, o|schau- e nicht zu-|rück; emp-|fin- de dich be-|
w: 4.  Nun|steh'n im Him- mels-|krei- se die|Stern' in Ma- jes-|tät, in|glei- chem fes- tem|
 c4 B2 B2 | B3 B B2 A2 | G2 z4 z2 | z2 G2 e2 d2 | c2 =B2 c2 G2 | z2 G2 e2 d2 | c2 =B2 c2"^" G2 | %13
w: Or- ten der|En- gel Fü- ße|gehn.|Rings in die|Ta- le sen- ket|sich Fins- ter-|nis mit Macht, wirf|
w: Rei- gen und|stumm ihr Schmer- zen-|schrei.|Hat Ro- sen|sie ge- schen- ket,|hat Dor- nen|sie ge- bracht, *|
w: see- let von|frei- er Gna- de|Glück.|Auch des Ver-|irr- ten den- ket|der Hirt auf|ho- her Wacht, *|
w: Glei- se der|gold- ne Wa- gen|geht.|Und gleich den|Ster- nen len- ket|Er dei- nen|Weg durch Nacht, *|
 (A2 G2) F4 | (E2 F2) (G2 A2) | B8 | B2 z2 d4 | e4 e4 | d4 d4 |!<(! c2 c2 B2!<)! A2 | %20
w: ab, _ Herz,|was _ dich _|krän-|ket und|was dir|ban- ge|macht, und was dir|
w: |||||||
w: |||||||
w: |||||||
"^dim." B4 A4 | G4 !fermata!z2 |] %22
w: ban- ge|macht!|
w: ||
w: ||
w: ||
V:4
!p! E, z | E,2 z3/2 E,/ =B,, z C, z | G,, z C, z z2 C, z | C,2 z3/2 C,/ C, z C, z | B,,6 B,,2 | %5
w: |||||
w: |||||
w: |||||
w: |||||
 C,3 C, B,,2 B,,2 | A,,4 F,2 E,2 | D,3 E, F,2 B,,2 | E,2 z4 z2 | z4 z2 G,,2 | E,2 D,2 C,2 =B,,2 | %11
w: ||||Rings|in die Ta- le|
w: ||||Hat|Ro- sen sie ge-|
w: ||||Auch|des Ver- irr- ten|
w: ||||Und|gleich den Ster- nen|
 C,2 G,,2 z2 G,,2 | E,2 D,2 C,2 B,,2 | A,,4"^" B,,4 | (C,2 D,2) E,4 | B,,6 B,,2 | %16
w: sen- ket sich|Fins- ter- nis mit|Macht, wirf|ab, _ Herz,|was dich|
w: schen- ket, hat|Dor- nen sie ge-|bracht, *|||
w: den- ket der|Hirt auf ho- her|Wacht, *|||
w: len- ket Er|dei- nen Weg durch|Nacht, *|||
 (E,2 G,2) B,2 A,2 | G,2 CB, A,2 G,2 | (F,4 G,4) |!<(! A,2 F,2 G,2!<)! A,2 |"^dim." B,4 B,,4 | %21
w: krän- * ket wirf|ab, Herz, _ was dich|krän- *|ket und was dir|ban- ge|
w: |||||
w: |||||
w: |||||
 E,4 !fermata!z2 |] %22
w: macht!|
w: |
w: |
w: |

